assets/images/icon 1.svg

<svg width="63" height="67" viewBox="0 0 63 67" fill="none"
    xmlns="http://www.w3.org/2000/svg">
    <g clip-path="url(#clip0_99_63)">
        <path d="M61.3003 52.02C59.4603 50.11 57.5703 48.24 55.6803 46.38C55.5323 46.2411 55.4163 46.0716 55.3403 45.8834C55.2644 45.6952 55.2302 45.4927 55.2403 45.29C55.2403 34.6233 55.2403 23.9267 55.2403 13.2C55.2594 12.5279 55.0154 11.8749 54.5602 11.38C51.5202 7.88 48.4903 4.37333 45.4703 0.860001C45.154 0.554109 44.8201 0.266952 44.4703 0H4.9903C4.89754 0.0515715 4.80048 0.0950625 4.70026 0.129997C3.36565 0.395996 2.16614 1.1205 1.30958 2.17797C0.453008 3.23544 -0.00665312 4.55924 0.0102595 5.92C0.0102595 7.03 0.0102595 8.14 0.0102595 9.25C0.0102595 10.7 0.0102595 24.69 0.0102595 30.25V41.71C0.0102595 48.12 0.0102595 54.54 0.0102595 60.95C-0.0235794 62.1016 0.294222 63.2361 0.92127 64.2026C1.54832 65.1691 2.45487 65.9216 3.52027 66.36C3.99717 66.5568 4.4846 66.727 4.98029 66.87H50.1303C50.4503 66.78 50.7603 66.71 51.0703 66.61C52.2545 66.2513 53.2948 65.5269 54.0421 64.5407C54.7893 63.5545 55.2053 62.3571 55.2303 61.12C55.2303 60.93 55.2303 60.74 55.2303 60.71C56.223 60.8577 57.2281 60.9046 58.2303 60.85C59.1951 60.6988 60.0965 60.2749 60.8283 59.6282C61.5601 58.9814 62.0917 58.1389 62.3603 57.2C62.7168 56.3287 62.8063 55.3712 62.6176 54.4489C62.4289 53.5266 61.9704 52.6812 61.3003 52.02ZM45.4603 5.08L45.6103 5.01L51.0803 11.36H46.0803C45.7303 11.36 45.5002 11.3 45.5002 10.87C45.4702 8.94 45.4603 7.01 45.4603 5.08ZM52.6603 60.48C52.5203 62.92 51.3403 64.2 48.8803 64.2C34.7203 64.2 20.5603 64.2 6.40027 64.2C5.89388 64.2353 5.38578 64.1618 4.9101 63.9846C4.43442 63.8074 4.00216 63.5305 3.64228 63.1725C3.28239 62.8145 3.00321 62.3837 2.82349 61.909C2.64377 61.4342 2.56769 60.9266 2.60029 60.42C2.66029 49.79 2.60029 39.15 2.60029 28.51V6.25C2.54582 5.75961 2.6027 5.26325 2.76667 4.79788C2.93064 4.33252 3.19746 3.91015 3.54731 3.56222C3.89716 3.21429 4.32098 2.94977 4.78724 2.78837C5.2535 2.62696 5.75022 2.57283 6.2403 2.63H42.8102V10.86C42.7752 11.2808 42.8325 11.7041 42.978 12.1005C43.1236 12.4968 43.3539 12.8566 43.6529 13.1547C43.9519 13.4528 44.3125 13.6819 44.7093 13.8262C45.1061 13.9705 45.5296 14.0264 45.9503 13.99H52.5903V43.22C52.501 43.1611 52.4173 43.0942 52.3403 43.02C49.4903 40.18 46.6503 37.33 43.7903 34.49C43.683 34.4037 43.6144 34.2784 43.5994 34.1415C43.5844 34.0047 43.6243 33.8675 43.7103 33.76C45.2029 30.6917 45.7693 27.255 45.3403 23.87C45.039 21.5747 44.2864 19.3617 43.1258 17.3587C41.9652 15.3556 40.4195 13.6022 38.5779 12.1994C36.7364 10.7966 34.6353 9.77221 32.3959 9.18534C30.1566 8.59848 27.8232 8.46071 25.5303 8.78C23.2451 9.10777 21.0474 9.88445 19.0637 11.0653C17.08 12.2461 15.3495 13.8078 13.9719 15.6603C12.5944 17.5128 11.597 19.6196 11.0372 21.8593C10.4774 24.0989 10.3663 26.4272 10.7103 28.71C11.1126 31.4124 12.1428 33.9828 13.7183 36.2151C15.2937 38.4473 17.3704 40.2791 19.7819 41.5636C22.1933 42.8481 24.8722 43.5494 27.6037 43.6113C30.3352 43.6732 33.0431 43.0939 35.5103 41.92C35.6684 41.8167 35.8601 41.7778 36.046 41.8112C36.232 41.8447 36.398 41.948 36.5103 42.1C41.3103 46.92 46.0903 51.77 50.9703 56.52C51.5477 56.9971 52.0025 57.6056 52.2966 58.2946C52.5906 58.9836 52.7153 59.7329 52.6603 60.48ZM29.0203 30.71C30.9412 30.8911 32.7782 31.5853 34.3387 32.7201C35.8992 33.8549 37.1259 35.3884 37.8903 37.16C35.2872 39.5035 31.9375 40.8478 28.4366 40.954C24.9357 41.0602 21.5105 39.9214 18.7703 37.74C17.6703 36.84 17.5703 37.15 18.4603 35.81C19.5253 34.017 21.0946 32.5772 22.9725 31.6703C24.8504 30.7633 26.9538 30.4293 29.0203 30.71ZM22.6203 22.84C22.6123 21.4679 23.149 20.1487 24.1127 19.1719C25.0763 18.1951 26.3882 17.6406 27.7603 17.63C28.4408 17.6234 29.1159 17.7517 29.7465 18.0076C30.3771 18.2634 30.9507 18.6417 31.4343 19.1206C31.9178 19.5995 32.3016 20.1695 32.5635 20.7976C32.8255 21.4257 32.9603 22.0995 32.9603 22.78C32.9656 23.4609 32.8356 24.136 32.5778 24.7663C32.32 25.3965 31.9395 25.9692 31.4585 26.4511C30.9775 26.933 30.4055 27.3146 29.7758 27.5736C29.1461 27.8327 28.4712 27.964 27.7903 27.96C26.4208 27.968 25.1041 27.4323 24.1292 26.4705C23.1543 25.5087 22.6008 24.1994 22.5903 22.83L22.6203 22.84ZM32.7203 28.84C33.7757 27.9767 34.5873 26.8527 35.0749 25.5794C35.5625 24.306 35.7091 22.9274 35.5002 21.58C35.2316 19.6485 34.2154 17.8997 32.6703 16.71C31.1293 15.4703 29.1744 14.8632 27.2022 15.0117C25.23 15.1603 23.3882 16.0534 22.0503 17.51C21.3459 18.283 20.8035 19.1893 20.4551 20.1754C20.1067 21.1615 19.9593 22.2074 20.0218 23.2514C20.0842 24.2954 20.3552 25.3162 20.8187 26.2538C21.2821 27.1913 21.9287 28.0265 22.7203 28.71C21.4074 29.4752 20.1448 30.3236 18.9403 31.25C17.8565 32.2891 16.8347 33.391 15.8803 34.55C12.3003 30.07 11.6303 21.55 17.4203 15.64C20.1484 12.8601 23.8612 11.2659 27.7556 11.2023C31.6499 11.1387 35.4128 12.6107 38.2303 15.3C40.8878 17.8097 42.518 21.2174 42.8044 24.8614C43.0908 28.5054 42.013 32.1259 39.7803 35.02C38.2007 32.2242 35.7081 30.0564 32.7203 28.88V28.84ZM42.2703 36.84L46.7502 41.31L43.2203 44.83L38.7502 40.33L42.2703 36.84ZM59.9103 56.26C59.7757 56.7632 59.5014 57.2181 59.1191 57.572C58.7369 57.9259 58.2623 58.1644 57.7502 58.26C57.3368 58.3082 56.918 58.2519 56.5319 58.0965C56.1459 57.941 55.8049 57.6912 55.5403 57.37L52.2703 54.09L45.5903 47.4C45.4303 47.25 45.2903 47.09 45.1803 46.97L48.8503 43.29C48.9143 43.3386 48.9745 43.3921 49.0303 43.45L59.2703 53.71C59.6281 54.0251 59.8812 54.442 59.9955 54.9049C60.1099 55.3677 60.0802 55.8545 59.9103 56.3V56.26Z" fill="white"/>
        <path d="M27.9502 50.78H20.7802C19.7802 50.78 19.2002 50.3 19.2002 49.46C19.2002 48.62 19.7802 48.16 20.8002 48.16H35.2102C36.2102 48.16 36.8202 48.68 36.8102 49.48C36.8002 50.28 36.1902 50.77 35.1902 50.78H27.9502Z" fill="white"/>
        <path d="M18.5302 54.9H21.9202C22.9202 54.9 23.4402 55.42 23.4302 56.23C23.4202 57.04 22.8502 57.53 21.8902 57.53C19.6102 57.53 17.3269 57.53 15.0402 57.53C14.8508 57.5553 14.6581 57.5406 14.4747 57.4869C14.2912 57.4332 14.121 57.3417 13.975 57.2184C13.8291 57.095 13.7105 56.9424 13.627 56.7705C13.5435 56.5985 13.4969 56.411 13.4902 56.22C13.4902 55.44 14.0702 54.91 15.0102 54.9H18.5302Z" fill="white"/>
        <path d="M37.53 54.9H40.98C41.98 54.9 42.5001 55.42 42.4901 56.23C42.4801 57.04 41.91 57.53 40.94 57.53C38.66 57.53 36.38 57.53 34.1 57.53C33.9101 57.5552 33.7169 57.5405 33.5329 57.4869C33.3489 57.4333 33.1781 57.342 33.0314 57.2188C32.8846 57.0955 32.7651 56.9431 32.6805 56.7711C32.5959 56.5992 32.5481 56.4115 32.54 56.22C32.54 55.44 33.12 54.91 34.07 54.9H37.53Z" fill="white"/>
        <path d="M26.6699 56.19C26.6738 56.0162 26.7121 55.845 26.7828 55.6862C26.8535 55.5274 26.9551 55.3843 27.0817 55.2651C27.2083 55.146 27.3574 55.0532 27.5201 54.9923C27.6829 54.9313 27.8562 54.9033 28.0299 54.91C28.2036 54.9097 28.3756 54.945 28.5352 55.0138C28.6947 55.0825 28.8384 55.1833 28.9575 55.3098C29.0765 55.4364 29.1683 55.586 29.2272 55.7494C29.2861 55.9129 29.3109 56.0866 29.2999 56.26C29.2895 56.6005 29.1469 56.9235 28.9023 57.1606C28.6578 57.3977 28.3305 57.5302 27.9899 57.53C27.6396 57.5198 27.3068 57.3747 27.0609 57.125C26.815 56.8754 26.6749 56.5404 26.6699 56.19Z" fill="white"/>
    </g>
    <defs>
        <clipPath id="clip0_99_63">
            <rect width="62.72" height="66.82" fill="white"/>
        </clipPath>
    </defs>
</svg>

<svg xmlns="http://www.w3.org/2000/svg"
	xmlns:xlink="http://www.w3.org/1999/xlink" viewBox="0 0 63 67">
	<style type="text/css">
	.icon-boundary {
		fill: #F49158;
	}
	</style>

	<g style="clip-path:url(#SVGID_2_);">
		<path class="icon-boundary" d="M61.301,52.02c-1.84-1.91-3.73-3.779-5.621-5.64c-0.147-0.139-0.264-0.308-0.34-0.497
			c-0.075-0.188-0.109-0.391-0.1-0.593c0-10.667,0-21.363,0-32.09c0.02-0.672-0.225-1.325-0.68-1.82
			c-3.041-3.5-6.07-7.006-9.09-10.52c-0.316-0.306-0.65-0.593-1-0.86H4.99C4.897,0.052,4.8,0.095,4.7,0.13
			C3.366,0.396,2.166,1.121,1.31,2.178C0.453,3.235-0.007,4.559,0.01,5.92c0,1.11,0,2.22,0,3.33c0,1.45,0,15.44,0,21v11.46
			c0,6.41,0,12.83,0,19.24c-0.034,1.151,0.284,2.286,0.911,3.253c0.627,0.966,1.534,1.719,2.599,2.156
			c0.477,0.197,0.964,0.367,1.46,0.511h45.15c0.319-0.091,0.629-0.16,0.939-0.261c1.184-0.357,2.225-1.082,2.972-2.068
			s1.163-2.184,1.188-3.421c0-0.19,0-0.38,0-0.41c0.992,0.147,1.998,0.194,3,0.14c0.965-0.15,1.866-0.574,2.598-1.221
			c0.732-0.647,1.264-1.49,1.532-2.429c0.356-0.872,0.446-1.829,0.257-2.751C62.429,53.526,61.971,52.682,61.301,52.02z
			 M45.461,5.08l0.149-0.07l5.47,6.35h-5c-0.35,0-0.58-0.06-0.58-0.49C45.471,8.94,45.461,7.01,45.461,5.08z M52.66,60.48
			c-0.14,2.439-1.32,3.72-3.779,3.72c-14.16,0-28.32,0-42.48,0c-0.506,0.035-1.015-0.038-1.49-0.216
			c-0.476-0.177-0.908-0.454-1.268-0.813c-0.36-0.357-0.639-0.788-0.819-1.263c-0.18-0.476-0.255-0.982-0.223-1.489
			c0.06-10.63,0-21.27,0-31.91V6.25C2.546,5.76,2.603,5.263,2.767,4.798S3.197,3.91,3.547,3.562c0.35-0.348,0.773-0.612,1.24-0.773
			C5.253,2.627,5.75,2.573,6.24,2.63h36.57v8.23c-0.035,0.421,0.021,0.844,0.168,1.241c0.145,0.396,0.375,0.756,0.674,1.054
			c0.3,0.298,0.66,0.527,1.057,0.671s0.82,0.2,1.241,0.164h6.64v29.23c-0.089-0.06-0.172-0.127-0.25-0.201
			c-2.85-2.84-5.689-5.689-8.55-8.529c-0.106-0.086-0.176-0.212-0.19-0.349c-0.016-0.137,0.025-0.274,0.111-0.382
			c1.492-3.068,2.059-6.505,1.629-9.89c-0.301-2.295-1.053-4.508-2.214-6.511c-1.161-2.003-2.706-3.757-4.548-5.16
			s-3.943-2.427-6.182-3.014c-2.24-0.587-4.573-0.725-6.866-0.406c-2.285,0.328-4.483,1.104-6.467,2.286
			c-1.983,1.181-3.714,2.742-5.092,4.595c-1.377,1.853-2.375,3.959-2.935,6.199c-0.56,2.24-0.671,4.568-0.327,6.851
			c0.402,2.703,1.432,5.273,3.008,7.505c1.576,2.232,3.652,4.064,6.063,5.349c2.412,1.284,5.09,1.985,7.822,2.048
			s5.439-0.518,7.906-1.691c0.158-0.104,0.351-0.143,0.536-0.109c0.187,0.034,0.353,0.138,0.464,0.289
			c4.801,4.82,9.58,9.67,14.461,14.42c0.577,0.478,1.031,1.086,1.326,1.775C52.591,58.983,52.715,59.732,52.66,60.48z M29.021,30.71
			c1.921,0.181,3.758,0.875,5.318,2.01s2.787,2.668,3.552,4.44c-2.604,2.344-5.953,3.688-9.454,3.794s-6.926-1.032-9.666-3.214
			c-1.1-0.9-1.2-0.59-0.31-1.93c1.065-1.793,2.634-3.233,4.512-4.14C24.851,30.763,26.954,30.429,29.021,30.71z M22.62,22.84
			c-0.008-1.372,0.529-2.691,1.493-3.668c0.963-0.977,2.275-1.531,3.647-1.542c0.681-0.006,1.355,0.122,1.986,0.378
			c0.63,0.255,1.204,0.634,1.688,1.113c0.484,0.479,0.868,1.049,1.129,1.677c0.263,0.628,0.397,1.302,0.397,1.982
			c0.005,0.681-0.125,1.356-0.383,1.986s-0.639,1.203-1.12,1.685s-1.053,0.863-1.683,1.123c-0.63,0.259-1.305,0.39-1.985,0.386
			c-1.37,0.008-2.687-0.528-3.661-1.489c-0.975-0.962-1.529-2.271-1.539-3.641L22.62,22.84z M32.721,28.84
			c1.055-0.863,1.867-1.987,2.354-3.26c0.488-1.273,0.635-2.652,0.426-4c-0.269-1.932-1.285-3.68-2.83-4.87
			c-1.541-1.24-3.496-1.847-5.468-1.698s-3.814,1.042-5.152,2.498c-0.705,0.773-1.247,1.68-1.595,2.666
			c-0.349,0.986-0.496,2.032-0.433,3.076c0.062,1.044,0.333,2.065,0.797,3.002c0.463,0.938,1.11,1.772,1.901,2.456
			c-1.313,0.765-2.575,1.614-3.78,2.54c-1.084,1.039-2.106,2.141-3.06,3.3c-3.58-4.48-4.25-13,1.54-18.91
			c2.728-2.78,6.441-4.374,10.335-4.438c3.894-0.063,7.656,1.409,10.475,4.098c2.657,2.51,4.287,5.917,4.574,9.562
			c0.286,3.644-0.791,7.265-3.024,10.158c-1.579-2.795-4.072-4.963-7.06-6.14V28.84z M42.271,36.84l4.479,4.471l-3.529,3.52
			l-4.471-4.5L42.271,36.84z M59.91,56.26c-0.135,0.504-0.408,0.959-0.791,1.313s-0.857,0.592-1.369,0.688
			c-0.413,0.049-0.832-0.008-1.219-0.163c-0.385-0.155-0.727-0.405-0.991-0.727l-3.27-3.28L45.59,47.4
			c-0.16-0.15-0.3-0.311-0.41-0.43l3.67-3.681c0.064,0.048,0.125,0.103,0.181,0.16l10.24,10.26c0.357,0.315,0.61,0.731,0.726,1.194
			c0.113,0.463,0.084,0.95-0.086,1.396V56.26z"/>
		<path class="icon-boundary" d="M27.95,50.779h-7.17c-1,0-1.58-0.479-1.58-1.319s0.58-1.3,1.6-1.3h14.41c1,0,1.61,0.52,1.601,1.32
			c-0.01,0.799-0.62,1.289-1.62,1.299H27.95z"/>
		<path class="icon-boundary" d="M18.53,54.9h3.39c1,0,1.52,0.52,1.51,1.33c-0.01,0.81-0.58,1.299-1.54,1.299
			c-2.28,0-4.563,0-6.85,0c-0.189,0.025-0.382,0.012-0.565-0.043c-0.184-0.053-0.354-0.145-0.5-0.268s-0.265-0.276-0.348-0.448
			s-0.13-0.359-0.137-0.55c0-0.781,0.58-1.311,1.52-1.32H18.53z"/>
		<path class="icon-boundary" d="M37.529,54.9h3.451c1,0,1.52,0.52,1.51,1.33c-0.01,0.81-0.58,1.299-1.551,1.299
			c-2.279,0-4.56,0-6.84,0c-0.189,0.025-0.383,0.012-0.566-0.043c-0.184-0.053-0.355-0.145-0.502-0.268s-0.266-0.275-0.351-0.447
			s-0.133-0.359-0.141-0.551c0-0.781,0.58-1.311,1.53-1.32H37.529z"/>
		<path class="icon-boundary" d="M26.67,56.189c0.004-0.174,0.042-0.344,0.113-0.504c0.071-0.158,0.172-0.301,0.299-0.42
			c0.127-0.119,0.276-0.213,0.438-0.273c0.163-0.061,0.336-0.089,0.51-0.082c0.174,0,0.346,0.035,0.505,0.104
			s0.303,0.17,0.422,0.296c0.119,0.127,0.211,0.276,0.27,0.44c0.059,0.163,0.084,0.336,0.073,0.51
			c-0.01,0.341-0.153,0.664-0.397,0.9c-0.245,0.237-0.572,0.37-0.913,0.369c-0.35-0.01-0.683-0.154-0.929-0.404
			C26.815,56.875,26.675,56.541,26.67,56.189z"/>
	</g>

</svg>
